Origami/16x16/mimetypes/text-x-po.svg

<svg xmlns="http://www.w3.org/2000/svg" width="16" height="16" version="1.1" viewBox="0 0 16 16">
 <path fill="#e4e4e4" d="m2.75 1c-0.4172 0-0.75 0.3328-0.75 0.75v13.5c0 0.417 0.3328 0.75 0.75 0.75h10.5c0.418 0 0.75-0.332 0.75-0.75v-9.25l-4.125-0.875-0.875-4.125z"/>
 <path opacity=".5" d="m5.8438 9s-0.8438 0.0007-0.8438 0.7949v2.4121c0 0.438 0.3852 0.821 0.8574 0.793h1.8691l1.0918 1 1.0898-1h0.23438c0.001 0 0.858 0.001 0.858-0.793v-2.4121c0-0.7945-0.857-0.7949-0.857-0.7949zm0.1562 0.5h4v0.5h-4zm0 1h4v0.5h-4zm0 1h2v0.5h-2z"/>
 <path fill="#fafafa" d="m9 1v4.1667c0 0.4584 0.3749 0.8333 0.8333 0.8333h4.1667z"/>
</svg>

<?xml version="1.0" encoding="UTF-8" standalone="no"?>
<svg
   xmlns:dc="http://purl.org/dc/elements/1.1/"
   xmlns:cc="http://creativecommons.org/ns#"
   xmlns:rdf="http://www.w3.org/1999/02/22-rdf-syntax-ns#"
   xmlns:svg="http://www.w3.org/2000/svg"
   xmlns="http://www.w3.org/2000/svg"
   viewBox="0 0 16 16"
   version="1.1"
   width="16px"
   height="16px"
   id="svg2">
  <defs
     id="defs10" />
  <metadata
     id="metadata17">
    <rdf:RDF>
      <cc:Work
         rdf:about="">
        <dc:format>image/svg+xml</dc:format>
        <dc:type
           rdf:resource="http://purl.org/dc/dcmitype/StillImage" />
      </cc:Work>
    </rdf:RDF>
  </metadata>
  <path
     style="fill:#cccccc"
     d="M 2.75,1 C 2.3328,1 2,1.3328 2,1.75 l 0,13.5 C 2,15.667 2.3328,16 2.75,16 l 10.5,0 C 13.668,16 14,15.668 14,15.25 L 14,6 9.875,5.125 9,1 Z"
     id="path5" />
  <path
     d="M 5.8438,9 C 5.8438,9 5,9.0007 5,9.7949 L 5,12.207 C 5,12.645 5.3852,13.028 5.8574,13 l 1.8691,0 1.0918,1 1.0898,-1 0.23438,0 c 10e-4,0 0.858,10e-4 0.858,-0.793 l 0,-2.4121 C 11.00048,9.0004 10.14348,9 10.14348,9 Z M 6,9.5 l 4,0 0,0.5 -4,0 z m 0,1 4,0 0,0.5 -4,0 z m 0,1 2,0 0,0.5 -2,0 z"
     id="path4149"
     style="fill-opacity:0.50196013" />
  <path
     style="fill:#f8f8f0"
     d="M 9,1 9,5.1666667 C 9,5.6250667 9.374933,6 9.833333,6 L 14,6 Z"
     id="path9" />
  <path
     style="fill:#ffffff;fill-opacity:0.2"
     d="M 2.75,1 C 2.3328,1 2,1.3328 2,1.75 l 0,0.6 C 2,1.9328 2.3328,1.6 2.75,1.6 L 9,1.6 9,1 Z"
     id="path11" />
</svg>
